X: 15
T: Fedelta
P: AAB x 3
M: 3/4
L: 1/8
K: D major
P: A
"D"F2 |: "D"F4F2 | F4F2 | "G"G4G2 | G4G2 | "D"F4F2 | "A"E4D2 | \
E4E2 | "A"E4"D"F2 
| "D"F4D2 | E4F2 | "G"G4G2 | "D"F4F2 | \
"A"E4"D"D2 | "A"C4E2 | "D"D4D2 | D4F2 :| 
P: B
"G"G4"D"F2 | "A"E4E2 | \
"D"F4F2 | F4F2 | "G"G4"D"F2 | "Asus4"E4"A"E2 | "D"D4D2 | D4 |] 

